X: 1
T: Helena   [G]
C: tune: Colin Hume 1988
R: march
Z: 2014 John Chambers <jc:trillian.mit.edu>
M: 2/4
L: 1/8
K: G
|:\
"G"G3A B2G2 | "G"d2B2 G2D2 | "C"E3F G2A2 | "G"D6 AB |\
"Am"c6 Bc | "G"d6 G2 | "C"e3f g2B2 |1 "D7"A6 D2 :|2 "D7"A4 "G"G4 |]
|:\
"C"c2Bc "D7"A2d2 | "C"c2Bc "D7"A2D2 | "G"G2d2 d2cB | "(C)"B4 "D7"A4 |\
"G"G3B d2G2 | "C"edcB "D7"A2D2 | "C"E2c2 c2Bc | "D7"A4 "G"G4 :|
